packages/ui-icons/svg/Line/settings-2.svg

<svg viewBox="0 0 1920 1920" version="1.1" xmlns="http://www.w3.org/2000/svg">
    <path d="M1739.33929,1293.41365 L1633.51341,1474.23247 L1393.28753,1394.04424 L1368.77929,1416.29365 C1298.86871,1479.87953 1218.56753,1525.95953 1130.13459,1553.06541 L1098.05929,1563.00424 L1048.59106,1807.07012 L835.584,1807.07012 L786.115765,1562.89129 L754.040471,1552.95247 C665.607529,1525.84659 585.306353,1479.76659 515.395765,1416.18071 L490.887529,1393.93129 L250.661647,1474.11953 L144.835765,1293.30071 L334.576941,1128.85835 L327.122824,1095.87953 C316.732235,1050.13835 311.536941,1004.39718 311.536941,960.011294 C311.536941,915.625412 316.732235,869.884235 327.122824,824.143059 L334.576941,791.164235 L144.835765,626.721882 L250.661647,445.903059 L490.887529,525.978353 L515.395765,503.728941 C585.306353,440.143059 665.607529,394.063059 754.040471,366.844235 L786.115765,357.018353 L835.584,112.952471 L1048.59106,112.952471 L1098.05929,357.131294 L1130.13459,366.957176 C1218.56753,394.176 1298.86871,440.143059 1368.77929,503.841882 L1393.28753,526.091294 L1633.51341,445.903059 L1739.33929,626.721882 L1549.59812,791.164235 L1557.05224,824.143059 C1567.44282,869.884235 1572.63812,915.625412 1572.63812,960.011294 C1572.63812,1004.39718 1567.44282,1050.13835 1557.05224,1095.87953 L1549.59812,1128.85835 L1739.33929,1293.41365 Z M1685.57929,960.011294 C1685.57929,918.223059 1681.73929,875.531294 1673.94635,832.726588 L1884.12988,650.665412 L1684.67576,309.808941 L1419.48988,398.241882 C1352.51576,342.674824 1276.16753,298.853647 1195.64047,269.827765 L1140.97694,0.0112941176 L743.198118,0.0112941176 L688.534588,269.714824 C607.104,298.853647 532.111059,341.997176 464.572235,398.128941 L199.499294,309.808941 L0.0451764706,650.665412 L210.115765,832.726588 C202.435765,875.531294 198.595765,918.223059 198.595765,960.011294 C198.595765,1001.79953 202.435765,1044.49129 210.115765,1087.18306 L0.0451764706,1269.35718 L199.499294,1610.21365 L464.685176,1521.66776 C531.659294,1577.34776 608.007529,1621.056 688.534588,1650.19482 L743.198118,1920.01129 L1140.97694,1920.01129 L1195.64047,1650.30776 C1276.95812,1621.056 1352.064,1578.02541 1419.48988,1521.78071 L1684.67576,1610.32659 L1884.12988,1269.47012 L1673.94635,1087.296 C1681.73929,1044.49129 1685.57929,1001.79953 1685.57929,960.011294 L1685.57929,960.011294 Z M942.076235,564.705882 C724.099765,564.705882 546.782118,742.023529 546.782118,960 C546.782118,1177.97647 724.099765,1355.29412 942.076235,1355.29412 C1160.05271,1355.29412 1337.37035,1177.97647 1337.37035,960 C1337.37035,742.023529 1160.05271,564.705882 942.076235,564.705882 M942.076235,1242.35294 C786.443294,1242.35294 659.723294,1115.63294 659.723294,960 C659.723294,804.367059 786.443294,677.647059 942.076235,677.647059 C1097.70918,677.647059 1224.42918,804.367059 1224.42918,960 C1224.42918,1115.63294 1097.70918,1242.35294 942.076235,1242.35294" stroke="none" stroke-width="1" fill-rule="evenodd"/>
</svg>

<svg viewBox="0 0 1920 1920" version="1.1" xmlns="http://www.w3.org/2000/svg">
    <path d="M1739.34 1293.414l-105.827 180.818-240.225-80.188-24.509 22.25c-69.91 63.586-150.211 109.666-238.644 136.771l-32.076 9.94-49.468 244.065H835.584l-49.468-244.179-32.076-9.939c-88.432-27.105-168.734-73.185-238.644-136.771l-24.508-22.25-240.226 80.189-105.826-180.82 189.74-164.442-7.453-32.978c-10.39-45.742-15.586-91.483-15.586-135.869 0-44.386 5.195-90.127 15.586-135.868l7.454-32.979-189.741-164.442 105.826-180.819 240.226 80.075 24.508-22.25c69.91-63.585 150.212-109.665 238.644-136.884l32.076-9.826 49.468-244.066h213.007l49.468 244.18 32.076 9.825c88.433 27.219 168.734 73.186 238.644 136.885l24.509 22.25 240.225-80.189 105.826 180.819-189.74 164.442 7.453 32.98c10.39 45.74 15.586 91.481 15.586 135.867 0 44.386-5.195 90.127-15.586 135.869l-7.454 32.978 189.741 164.556zm-53.76-333.403c0-41.788-3.84-84.48-11.634-127.284l210.184-182.062-199.454-340.856-265.186 88.433c-66.974-55.567-143.322-99.388-223.85-128.414L1140.977.01H743.198l-54.663 269.704c-81.431 29.139-156.424 72.282-223.963 128.414L199.5 309.809.045 650.665l210.07 182.062c-7.68 42.804-11.52 85.496-11.52 127.284 0 41.789 3.84 84.48 11.52 127.172L.046 1269.357 199.5 1610.214l265.186-88.546c66.974 55.68 143.323 99.388 223.85 128.527l54.663 269.816h397.779l54.663-269.703c81.318-29.252 156.424-72.283 223.85-128.527l265.186 88.546 199.454-340.857-210.184-182.174c7.793-42.805 11.633-85.496 11.633-127.285zM942.075 564.706C724.1 564.706 546.782 742.024 546.782 960c0 217.976 177.318 395.294 395.294 395.294 217.977 0 395.294-177.318 395.294-395.294 0-217.976-177.317-395.294-395.294-395.294m0 677.647c-155.633 0-282.353-126.72-282.353-282.353s126.72-282.353 282.353-282.353S1224.43 804.367 1224.43 960s-126.72 282.353-282.353 282.353" stroke="none" stroke-width="1" fill-rule="evenodd"/>
</svg>
